!!!COM: Palestrina, Giovanni Perluigi da
!!!OPR: Missa Jam Christus astra ascenderat
!!!OTL: Benedictus
**kern	**kern	**kern	**kern
*Ibass	*Itenor	*Icalto	*Icalto
!Bassus	!Tenor	!Altus 2	!Altus 1
*clefF4	*clefGv2	*clefG2	*clefG2
*k[b-]	*k[b-]	*k[b-]	*k[b-]
*G:dor	*G:dor	*G:dor	*G:dor
*M4/2	*M4/2	*M4/2	*M4/2
=1	=1	=1	=1
0r	0G	0r	0r
=2	=2	=2	=2
0r	1B-	1.d	0r
.	1G	.	.
.	.	2e	.
=3	=3	=3	=3
0r	1F	1f	0r
.	1B-	2d	.
.	.	2f	.
=4	=4	=4	=4
1r	1c	1e	0r
[1D	2.d	4d	.
.	.	4e	.
.	.	4f	.
.	4e	4g	.
=5	=5	=5	=5
2D]	2f	4a	0r
.	.	4b-	.
2E	4e	2.cc	.
.	4d	.	.
1F	2c	.	.
.	.	4b-	.
.	[2f	4a	.
.	.	4g	.
=6	=6	=6	=6
2D	4f]	2f	0r
.	4e	.	.
2F	2d	2.a	.
1E	4c	.	.
.	4B-	4g	.
.	4A	[2g	.
.	4G	.	.
=7	=7	=7	=7
1D	1A	2g]	0d
.	.	2f	.
1r	1G	1b-	.
=8	=8	=8	=8
0D	2r	1a	1f
.	2d	.	.
.	2f	1r	1d
.	4F	.	.
.	4G	.	.
=9	=9	=9	=9
1F	4A	1.a	1c
.	4B-	.	.
.	2c	.	.
1D	2d	.	1f
.	[2f	2b	.
=10	=10	=10	=10
1C	4f]	1cc	1g
.	8e	.	.
.	8d	.	.
.	2e	.	.
1F	2.f	2a	1a
.	.	2cc	.
.	4e	.	.
=11	=11	=11	=11
1G	4d	1b-	2.g
.	4c	.	.
.	1d	.	.
.	.	.	4f
1A	.	2.a	4e
.	.	.	4d
.	2c#	.	2e
.	.	4g	.
=12	=12	=12	=12
2.B-	2d	2f	0d
.	1G	1b-	.
4A	.	.	.
2G	.	.	.
2F#	2A	2a	.
=13	=13	=13	=13
0G	1B-	2.g	2r
.	.	.	1d
.	.	4a	.
.	2G	2b-	.
.	2B-	2g	2e
=14	=14	=14	=14
0D	0A	2.a	1f
.	.	4g	.
.	.	4f	2d
.	.	4e	.
.	.	[2d	2f
=15	=15	=15	=15
1r	1A	2d]	1e
.	.	2c#	.
[1G	2r	1d	2d
.	2d	.	[2b-
=16	=16	=16	=16
2G]	2e	2r	2b-]
2A	1f	2c	4a
.	.	.	4g
1B-	.	2d	2f
.	2d	2f	[2b-
=17	=17	=17	=17
2G	2e-	1g	4b-]
.	.	.	4a
2B-	2.d	.	1g
1A	.	1c	.
.	4c	.	.
.	[2c	.	2f#
=18	=18	=18	=18
1G	2c]	1d	0g
.	2B	.	.
[1C	[1c	1e	.
=19	=19	=19	=19
1C]	1c]	2r	2r
.	.	2c	2cc
1r	1r	2e	2cc
.	.	2g	2b
=20	=20	=20	=20
0r	2r	2.a	2.cc
.	2F	.	.
.	.	4g	4b-
.	2A	2f	2a
.	2c	[2e	[2g
=21	=21	=21	=21
0r	1d	4e]	4g]
.	.	4d	4f
.	.	1d	4f
.	.	.	8e
.	.	.	8d
.	2A	.	2e
.	2A	2c#	2e
=22	=22	=22	=22
1r	2.B-	2d	1d
.	.	2f	.
.	8A	.	.
.	8G	.	.
2r	1F	2.a	2r
2F	.	.	2f
.	.	4b-	.
=23	=23	=23	=23
2A	1r	1cc	2f
2c	.	.	2e
2d	2r	2r	2f
4D	2F	2f	[2a
4E	.	.	.
=24	=24	=24	=24
4F	2A	2f	2a]
4G	.	.	.
2A	2c	2e	2a
2D	1d	2f	4a
.	.	.	4g
[2d	.	[2B-	4f
.	.	.	4e
=25	=25	=25	=25
2d]	2B-	2B-]	1f
1c	2A	2c	.
.	1G	1d	2.g
2B	.	.	.
.	.	.	4f
=26	=26	=26	=26
1c	0r	2r	2e
.	.	2c	2cc
1r	.	2e	2cc
.	.	2g	2b
=27	=27	=27	=27
1F	2r	1a	1cc
.	2f	.	.
2A	2f	2.cc	2a
2c	2e	.	2g
.	.	4cc	.
=28	=28	=28	=28
2d	2f	2a	2f
4D	2F	2f	2a
4E	.	.	.
4F	2A	2f	2a
4G	.	.	.
2A	2c	2e	2a
=29	=29	=29	=29
1.D	2.d	2f	4a
.	.	.	4g
.	.	4d	4f
.	4c	4e	4e
.	2B-	4f	2d
.	.	4g	.
2F	2A	[2a	4c
.	.	.	4d
=30	=30	=30	=30
2E-	2B-	4a]	1e-
.	.	4g	.
2C	2c	1g	.
1D	2.A	.	2.d
.	.	2f#	.
.	4A	.	4d
=31	=31	=31	=31
0G	0B	0g	0d
==	==	==	==
*-	*-	*-	*-
!!!CDT: 1525/^1526/-1594/2/2
!!!OCY: Italia
!!!AGN: Mass (Paraphrase)
!!!AST: renaissance, vocal
!!!ASW: Hymn
!!!PWK: Masses, Book 5
!!!RNB: Cadence finals: D
!!!YOR: Le Opere Complete, v. 15, p. 20
!!!YOO: Rome, Italy: Fratelli Scalera
!!!END: 1992//
!!!EED: John Miller
!!!YEC: Copyright 2000, John Miller
!!!YEN: United States of America
!!!YEM: Rights to all derivative electronic formats reserved.
!!!YEM: Refer to licensing agreement for further details.
!!!YEM: This file must be accompanied by the licensing agreement.
!!!YEM: A copy of the licensing agreement may be found at http://www.music-cog.ohio-state.edu/HumdrumDatabases/Palestrina/license.txt
!!!EMD: converted to Humdrum by Bret Aarden
